svgs/regular/arrows-to-line.svg

<svg xmlns="http://www.w3.org/2000/svg" viewBox="0 0 448 512"><!-- Font Awesome Pro 6.0.0-alpha2 by @fontawesome - https://fontawesome.com License - https://fontawesome.com/license (Commercial License) --><path d="M207.031 184.969C209.6 187.539 215.514 192 224 192S238.4 187.539 240.969 184.969L312.969 112.969C317.656 108.281 320 102.141 320 96C320 82.289 308.791 72 296 72C289.859 72 283.719 74.344 279.031 79.031L248 110.062V24C248 10.75 237.25 0 224 0S200 10.75 200 24V110.062L168.969 79.031C164.281 74.344 158.141 72 152 72C138.291 72 128 83.211 128 96C128 102.141 130.344 108.281 135.031 112.969L207.031 184.969ZM240.969 327.031C234.945 321.008 227.695 320.031 224 320.031C220.318 320.031 213.062 321 207.031 327.031L135.031 399.031C130.344 403.719 128 409.859 128 416C128 429.711 139.209 440 152 440C158.141 440 164.281 437.656 168.969 432.969L200 401.938V488C200 501.25 210.75 512 224 512S248 501.25 248 488V401.938L279.031 432.969C283.719 437.656 289.844 440 296 440C314.795 440 320 422.801 320 416C320 409.859 317.656 403.719 312.969 399.031L240.969 327.031ZM424 232H24C10.75 232 0 242.75 0 256S10.75 280 24 280H424C437.25 280 448 269.25 448 256S437.25 232 424 232Z"/></svg>

<svg xmlns="http://www.w3.org/2000/svg" viewBox="0 0 448 512"><!--! Font Awesome Pro 6.4.0 by @fontawesome - https://fontawesome.com License - https://fontawesome.com/license (Commercial License) Copyright 2023 Fonticons, Inc. --><path d="M241 185l72-72c9.4-9.4 9.4-24.6 0-33.9s-24.6-9.4-33.9 0l-31 31L248 24c0-13.3-10.7-24-24-24s-24 10.7-24 24l0 86.1L169 79c-9.4-9.4-24.6-9.4-33.9 0s-9.4 24.6 0 33.9l72 72c9.4 9.4 24.6 9.4 33.9 0zM0 256c0 13.3 10.7 24 24 24H424c13.3 0 24-10.7 24-24s-10.7-24-24-24H24c-13.3 0-24 10.7-24 24zm241 71c-9.4-9.4-24.6-9.4-33.9 0l-72 72c-9.4 9.4-9.4 24.6 0 33.9s24.6 9.4 33.9 0l31-31V488c0 13.3 10.7 24 24 24s24-10.7 24-24V401.9l31 31c9.4 9.4 24.6 9.4 33.9 0s9.4-24.6 0-33.9l-72-72z"/></svg>
